X:171
T:Caleneg - The New Year's Gift
M:3/4
L:1/8
Q:120
C:Trad. arr. J.T.
S:Davidsons Musical Miracles 1859
R:Waltz
N:Compressed into one octave
K:G
B2 | E2 E2 FE | E2 ^D2 EF | G2 G2 AG | F4 GF |
E2 E2 FE | ^D2 B2 EF | G2 F2 E2 | E4 :|
|: EF | G2 GA Bc |B2 A2 G2 |
F2 BF GE | ^D4 BA | G2 E2 (3EFG | F2 B2 BA |
G2 E2 ^D2 | E4 :||
